X:73
M:C
L:1/8
K:B_
e<gd<f c>B A<F:|
|:f>B e/d/c/B/ f<B e>g|fB e/d/c/B/ c>B A<F|f>B e/d/c/B/ f<B d>f|1
e<gd<f c>B A<F:|2 e<gd<b c>B A<F||

